X: 1
C: Trad
T: Danbury Hill
R: Jig
M: 6/8
L: 1/8
K: Emin
Z: ABC transcription by Verge Roller
r: 32
|: "Em" EGB c2 B | "D" AFD B2 A | "Em" GFE "D" FED | "Em" EGB "D" AFD |
"Em" EGB c2 B | "D" AFD B2 A | "Em" GFE "D" FED  | [1 "Em" E3-E3 :| [2 "Em" E3 EGB |]
|:  "Em" e2 ^d-^d =d2  | "Em" ^c2 =c-=c B2 | "Em" BcB "Am7" A2 G | "Em" BcB "Am7" A2 G |
"Em" e2 ^d-^d =d2  | "Em" ^c2 =c-=c B2 | "Em" BcB "D" AGF | [1 "Em" E3 EGB :| [2 "Em" E3-E3 |]
